images/icons/chart_broadcasting.svg

<svg xmlns="http://www.w3.org/2000/svg" viewBox="0 0 792 612" enable-background="new 0 0 792 612"><path stroke="#676767" d="M405.5 295.1c-2.7-2.7-6.3-4.1-9.8-4.1-3.6 0-7.1 1.4-9.8 4.1-5.4 5.4-5.4 14.2 0 19.7 2.7 2.7 6.3 4.1 9.8 4.1 3.6 0 7.1-1.4 9.8-4.1 5.4-5.4 5.4-14.2 0-19.7z" fill="none"/><path fill="#676767" d="M389.8 295.9c-.9.8-1.3 2-1.3 3.2 0 1.2.4 2.3 1.3 3.2l-.7.8c-1.1-1.1-1.7-2.6-1.7-4s.5-2.8 1.7-3.9l.7.7zm11.9 19.5h-.3c-.3 0-.7-.2-.8-.6l-.3-.7h-9.1l-.3.7c-.1.4-.5.6-.8.6h-.3c-.5-.2-.7-.7-.5-1.2l5.5-14.2.8-.6h.3l.8.6 5.5 14.2c.2.5 0 1-.5 1.2zm-9.3-18.1c-.5.5-.8 1.2-.8 1.9 0 .6.2 1.3.7 1.8l-.7.7c-.7-.7-1.1-1.6-1.1-2.5 0-.9.3-1.8 1.1-2.5l.8.6zm2.5 16l-2.4-2.4-.9 2.4h3.3zm-2.1-3.3l.8.8 1.5-1.5-1.5-1.5-.8 2.2zm1.3-3.1l1.7 1.7 1.7-1.7h-3.4zm3.2 4.5l-1.5-1.5-1.5 1.5 1.5 1.5 1.5-1.5zm-2.9-5.4h2.8l-1.4-3.6-1.4 3.6zm.2-7.7c0-.6.5-1.1 1.1-1.1.6 0 1.1.5 1.1 1.1s-.5 1.1-1.1 1.1c-.6.1-1.1-.5-1.1-1.1zm3.2 9.5l-1.4 1.4 1.5 1.5.7-.7-.8-2.2zm2.2 5.5l-.9-2.4-2.4 2.4h3.3zm-.8-12.3c.5-.5.8-1.2.8-1.9 0-.6-.2-1.3-.7-1.8l.7-.7c.6.7 1.1 1.6 1.1 2.6 0 .9-.3 1.8-1.1 2.5l-.8-.7zm2.7 1.4c.9-.8 1.3-2 1.3-3.2 0-1.2-.4-2.4-1.3-3.2l.7-.7c1.1 1.1 1.7 2.6 1.7 4s-.5 2.8-1.7 3.9l-.7-.8z"/></svg>

<?xml version="1.0" encoding="utf-8"?>
<!-- Generator: Adobe Illustrator 18.0.0, SVG Export Plug-In . SVG Version: 6.00 Build 0)  -->
<!DOCTYPE svg PUBLIC "-//W3C//DTD SVG 1.1//EN" "http://www.w3.org/Graphics/SVG/1.1/DTD/svg11.dtd">
<svg version="1.1" id="Layer_1" xmlns="http://www.w3.org/2000/svg" xmlns:xlink="http://www.w3.org/1999/xlink" x="0px" y="0px"
	 viewBox="0 0 792 612" enable-background="new 0 0 792 612" xml:space="preserve">
<g>
	<path fill="none" stroke="#676767" d="M405.5,295.1c-2.7-2.7-6.3-4.1-9.8-4.1c-3.6,0-7.1,1.4-9.8,4.1c-5.4,5.4-5.4,14.2,0,19.7
		c2.7,2.7,6.3,4.1,9.8,4.1c3.6,0,7.1-1.4,9.8-4.1C410.9,309.4,410.9,300.6,405.5,295.1z"/>
</g>
<path fill="#676767" d="M389.8,295.9c-0.9,0.8-1.3,2-1.3,3.2c0,1.2,0.4,2.3,1.3,3.2l-0.7,0.8c-1.1-1.1-1.7-2.6-1.7-4
	c0-1.4,0.5-2.8,1.7-3.9L389.8,295.9z M401.7,315.4c-0.1,0-0.2,0-0.3,0c-0.3,0-0.7-0.2-0.8-0.6l-0.3-0.7h-4.5h-4.6l-0.3,0.7
	c-0.1,0.4-0.5,0.6-0.8,0.6c-0.1,0-0.2,0-0.3,0c-0.5-0.2-0.7-0.7-0.5-1.2l5.5-14.2l0.8-0.6h0.3l0.8,0.6l5.5,14.2
	C402.4,314.7,402.2,315.2,401.7,315.4z M392.4,297.3c-0.5,0.5-0.8,1.2-0.8,1.9c0,0.6,0.2,1.3,0.7,1.8l-0.7,0.7
	c-0.7-0.7-1.1-1.6-1.1-2.5c0-0.9,0.3-1.8,1.1-2.5L392.4,297.3z M394.9,313.3l-2.4-2.4l-0.9,2.4H394.9z M392.8,310l0.8,0.8l1.5-1.5
	l-1.5-1.5L392.8,310z M394.1,306.9l1.7,1.7l1.7-1.7H394.1z M397.3,311.4l-1.5-1.5l-1.5,1.5l1.5,1.5L397.3,311.4z M394.4,306h2.8
	l-1.4-3.6L394.4,306z M394.6,298.3c0-0.6,0.5-1.1,1.1-1.1c0.6,0,1.1,0.5,1.1,1.1s-0.5,1.1-1.1,1.1
	C395.1,299.5,394.6,298.9,394.6,298.3z M397.8,307.8l-1.4,1.4l1.5,1.5l0.7-0.7L397.8,307.8z M400,313.3l-0.9-2.4l-2.4,2.4H400z
	 M399.2,301c0.5-0.5,0.8-1.2,0.8-1.9c0-0.6-0.2-1.3-0.7-1.8l0.7-0.7c0.6,0.7,1.1,1.6,1.1,2.6c0,0.9-0.3,1.8-1.1,2.5L399.2,301z
	 M401.9,302.4c0.9-0.8,1.3-2,1.3-3.2c0-1.2-0.4-2.4-1.3-3.2l0.7-0.7c1.1,1.1,1.7,2.6,1.7,4c0,1.4-0.5,2.8-1.7,3.9L401.9,302.4z"/>
</svg>
